X: 19165
T: Ironlegs
R: hornpipe
M: 4/4
K: Dmajor
|:AG|F2AF E2AG|FGEF D2A2|B2c2 d2ed|cdBc A2AG|
F2AF E2AG|FGEF D2A2|Bcde fedc|d2dc d2:|
|:de|fgfg efef|fgfg efef|dede cdcd|dede cdcd|
BcBc ABAB|BcBc ABAB|Bcde fedc|d2dc d2:|

